icons/production/android.svg

<?xml version="1.0" encoding="UTF-8" standalone="no"?>
<svg width="24px" height="24px" viewBox="0 0 24 24" version="1.1" xmlns="http://www.w3.org/2000/svg">
<!--Generator: Sketch 3.8.3 (29802) - http://www.bohemiancoding.com/sketch-->
    <title>
        android
    </title>
    <desc>
        Created with Sketch.
    </desc>
    <g id="Page-1" stroke="none" stroke-width="1" fill="none" fill-rule="evenodd">
        <path d="M13.922714,3.3696748 C13.3765825,3.12857472 12.7408905,2.98362926 12.003077,2.98362926 C11.2683718,2.98362926 10.6347215,3.12735603 10.0897997,3.36665192 L8.86392741,2.13972345 C8.67238363,1.94801463 8.35310491,1.95674706 8.16355333,2.14646195 C7.96829119,2.34189234 7.96206847,2.65251952 8.15682063,2.84743948 L9.20015903,3.89167684 C7.50096708,5.18469667 7,7.45917113 7,7.99101699 L17,7.98793735 C17,7.45889925 16.5032895,5.18987663 14.8108057,3.89624999 L15.8587133,2.84743948 C16.0534655,2.65251952 16.0472427,2.34189234 15.8519806,2.14646195 C15.662429,1.95674706 15.3431503,1.94801463 15.1516065,2.13972345 L13.922714,3.3696748 L13.922714,3.3696748 Z M3,10.3232811 L3,15.6612098 C3,16.3978439 3.672,16.9956919 4.5,16.9956919 C5.328,16.9956919 6,16.3978439 6,15.6612098 L6,10.3232811 C6,9.58597973 5.328,8.98879897 4.5,8.98879897 C3.672,8.98879897 3,9.58664697 3,10.3232811 L3,10.3232811 Z M18,10.2699018 L18,15.714589 C18,16.4217578 18.672,16.9956919 19.5,16.9956919 C20.328,16.9956919 21,16.4217578 21,15.714589 L21,10.2699018 C21,9.5620925 20.328,8.98879897 19.5,8.98879897 C18.672,8.98879897 18,9.56273305 18,10.2699018 L18,10.2699018 Z M8.00000001,17.9965535 C8.00000001,17.9965535 8.00000001,20.6688541 8,20.6688541 C8,21.3994826 8.67000008,22 9.5,22 C10.3299999,22 11,21.3994826 11,20.6688541 C11,20.6688541 11,17.9965535 11,17.9965535 L13,17.9965535 C13,17.9965535 13,20.6688541 13,20.6688541 C13,21.3994826 13.6700001,22 14.5,22 C15.3299999,22 16,21.3994826 16,20.6688541 C16,20.6688541 16,17.9965535 16,17.9965535 L17.0025606,17.9965535 L17.0025606,8.98879897 L7.0000496,8.98879897 L7.0000496,17.9965535 L8.00000001,17.9965535 L8.00000001,17.9965535 Z M10,6.48664492 C9.7235,6.48664492 9.5,6.26295235 9.5,5.98621411 C9.5,5.70947587 9.7235,5.4857833 10,5.4857833 C10.2765,5.4857833 10.5,5.70947587 10.5,5.98621411 C10.5,6.26295235 10.2765,6.48664492 10,6.48664492 L10,6.48664492 Z M14,6.48664492 C13.7235,6.48664492 13.5,6.26295235 13.5,5.98621411 C13.5,5.70947587 13.7235,5.4857833 14,5.4857833 C14.2765,5.4857833 14.5,5.70947587 14.5,5.98621411 C14.5,6.26295235 14.2765,6.48664492 14,6.48664492 L14,6.48664492 Z" id="android" fill="#000"/>
    </g>
</svg>

<svg xmlns="http://www.w3.org/2000/svg" viewBox="0 0 24 24">
    <path fill-rule="evenodd" d="M13.923 3.37a4.7 4.7 0 0 0-1.92-.386c-.735 0-1.368.143-1.913.383L8.864 2.14a.5.5 0 0 0-.7.006.493.493 0 0 0-.007.701L9.2 3.892C7.501 5.185 7 7.459 7 7.99l10-.003c0-.53-.497-2.798-2.19-4.092l1.049-1.049a.493.493 0 0 0-.007-.7.5.5 0 0 0-.7-.007l-1.23 1.23zM3 10.323v5.338c0 .737.672 1.335 1.5 1.335S6 16.398 6 15.66v-5.338c0-.737-.672-1.334-1.5-1.334S3 9.587 3 10.323zm15-.053v5.445c0 .707.672 1.28 1.5 1.28s1.5-.573 1.5-1.28V10.27c0-.708-.672-1.281-1.5-1.281s-1.5.574-1.5 1.28zM8 17.997v2.672C8 21.399 8.67 22 9.5 22s1.5-.6 1.5-1.331v-2.672h2v2.672c0 .73.67 1.331 1.5 1.331s1.5-.6 1.5-1.331v-2.672h1.003V8.989H7v9.008h1zm2-11.51a.5.5 0 1 1 0-1 .5.5 0 0 1 0 1zm4 0a.5.5 0 1 1 0-1 .5.5 0 0 1 0 1z"/>
</svg>
